public/img/home/homme.svg

<svg xmlns="http://www.w3.org/2000/svg" xmlns:xlink="http://www.w3.org/1999/xlink" preserveAspectRatio="xMidYMid" width="36" height="36" viewBox="0 0 36 36">
  <defs>
    <style>
      .cls-1 {
        fill: #b6b6b6;
        fill-rule: evenodd;
      }
    </style>
  </defs>
  <path d="M33.874,17.442 C32.715,17.442 31.770,16.502 31.770,15.342 L31.770,7.415 L25.798,13.374 C26.491,14.319 27.070,15.324 27.501,16.377 C28.194,18.087 28.549,19.904 28.549,21.722 C28.549,23.548 28.205,25.373 27.509,27.097 C26.814,28.820 25.766,30.436 24.368,31.828 C22.970,33.227 21.344,34.272 19.615,34.966 C17.886,35.660 16.053,36.001 14.220,36.001 C12.401,36.001 10.581,35.650 8.874,34.952 C7.164,34.256 5.557,33.210 4.177,31.829 C2.785,30.443 1.738,28.833 1.040,27.118 C0.343,25.400 -0.002,23.578 -0.002,21.757 C-0.002,19.935 0.343,18.115 1.040,16.397 C1.738,14.681 2.785,13.071 4.177,11.685 L5.414,12.921 L6.655,14.158 C5.600,15.212 4.815,16.420 4.288,17.714 C3.765,19.004 3.502,20.381 3.502,21.757 C3.502,23.133 3.764,24.509 4.288,25.803 C4.816,27.094 5.600,28.301 6.655,29.355 C7.705,30.403 8.911,31.187 10.199,31.713 C11.488,32.238 12.852,32.501 14.219,32.501 C15.612,32.501 17.003,32.241 18.305,31.719 C19.611,31.195 20.827,30.412 21.887,29.355 C22.945,28.299 23.729,27.088 24.254,25.789 C24.778,24.490 25.039,23.109 25.039,21.723 C25.039,20.356 24.775,18.988 24.248,17.699 C23.722,16.414 22.936,15.209 21.887,14.158 C20.841,13.116 19.639,12.330 18.359,11.803 C17.084,11.277 15.727,11.011 14.371,11.011 C12.968,11.011 11.566,11.271 10.255,11.791 C8.943,12.314 7.722,13.098 6.656,14.158 L5.414,12.921 L4.178,11.682 C5.583,10.279 7.221,9.230 8.957,8.540 C10.696,7.848 12.538,7.509 14.372,7.509 C16.189,7.509 18.002,7.868 19.701,8.567 C20.744,8.996 21.738,9.570 22.673,10.255 L28.729,4.211 L20.618,4.211 C19.454,4.211 18.512,3.270 18.512,2.112 C18.512,0.952 19.454,0.011 20.618,0.011 L33.874,0.011 C35.039,0.011 35.981,0.952 35.981,2.112 L35.981,2.115 L35.981,15.342 C35.981,16.502 35.039,17.442 33.874,17.442 Z" class="cls-1"/>
</svg>

<svg xmlns="http://www.w3.org/2000/svg" width="36" height="36" preserveAspectRatio="xMidYMid"><defs><style>.cls-1 { fill: #b6b6b6; fill-rule: evenodd; }</style></defs><path d="M33.87 17.44c-1.15 0-2.1-.94-2.1-2.1V7.42l-5.97 5.95c.7.95 1.27 1.95 1.7 3 .7 1.72 1.05 3.53 1.05 5.35 0 1.83-.35 3.65-1.04 5.38-.7 1.72-1.73 3.34-3.13 4.73-1.4 1.4-3.03 2.44-4.76 3.14-1.7.7-3.55 1.03-5.38 1.03-1.82 0-3.64-.35-5.35-1.05-1.7-.7-3.3-1.74-4.7-3.12-1.38-1.4-2.43-3-3.13-4.7C.34 25.4 0 23.57 0 21.75c0-1.83.34-3.65 1.04-5.36.7-1.72 1.75-3.33 3.14-4.7L5.4 12.9l1.25 1.24C5.6 15.2 4.83 16.42 4.3 17.7c-.53 1.3-.8 2.68-.8 4.06 0 1.37.26 2.75.8 4.04.52 1.3 1.3 2.5 2.36 3.55C7.7 30.4 8.9 31.2 10.2 31.71c1.3.54 2.65.8 4.02.8 1.4 0 2.78-.26 4.08-.78 1.3-.52 2.53-1.3 3.6-2.36 1.05-1.06 1.83-2.27 2.35-3.57.53-1.3.8-2.7.8-4.08 0-1.36-.28-2.73-.8-4.02-.53-1.3-1.3-2.5-2.36-3.54-1.06-1.04-2.26-1.83-3.54-2.36-1.28-.52-2.63-.8-4-.8-1.4 0-2.8.27-4.1.8-1.32.5-2.54 1.3-3.6 2.36L5.4 12.92 4.2 11.68c1.4-1.4 3.04-2.45 4.78-3.14 1.74-.7 3.58-1.03 5.4-1.03 1.83 0 3.64.37 5.34 1.07 1.04.43 2.04 1 2.97 1.7l6.06-6.06h-8.1c-1.18 0-2.12-.93-2.12-2.1 0-1.15.95-2.1 2.12-2.1h13.25c1.17 0 2.1.95 2.1 2.1v13.24c0 1.16-.93 2.1-2.1 2.1z" class="cls-1"/></svg>
